!!!!SEGMENT: Ren1002d-Missa_Benedictus_Dominus_Deus-Sanctus.krn
!!!id: Ren1002d
!!!AGN: Mass; Sanctus
!!!voices: 4
!!!COM: Renaldo
!!!OPR: Missa Benedictus Dominus Deus
!!!OTL: Sanctus
**kern	**kern	**kern	**kern
*part4	*part3	*part2	*part1
*staff4	*staff3	*staff2	*staff1
*I"Bassus	*I"Tenor	*I"Altus	*I"Superius
*I'B	*I'T	*I'A	*I'S
*clefF4	*clefGv2	*clefGv2	*clefG2
*k[b-]	*k[b-]	*k[b-]	*k[b-]
*F:	*F:	*F:	*F:
*M2/1	*M2/1	*M2/1	*M2/1
*met(C|)	*met(C|)	*met(C|)	*met(C|)
!!section: Sanctus
!!!OMD: Sanctus
=1	=1	=1	=1
0G	0G	0d	0g
=2	=2	=2	=2
1G	1B-y	1d	1g
1C	1c	1e	1g
=3	=3	=3	=3
0G	0d	0g	0b-y
=4	=4	=4	=4
2.D	1d	1f	2.a
4E	.	.	4g
2F	2c	4f	2a
.	.	4e	.
[2G	2B-y	4d	[2b-y
.	.	4c	.
=5	=5	=5	=5
4G]	1G	2B-y	4b-]
4F	.	.	4a
4E	.	1d	4g
4D	.	.	4f
1E	1G	.	1g
.	.	2c#i	.
=6	=6	=6	=6
0D	0A	1d	1f
.	.	[1d	2r
.	.	.	2f
=7	=7	=7	=7
1G	1B-y	2d]	1g
.	.	2e	.
1F	1c	[1f	1a
=8	=8	=8	=8
2.B-y	1.d	1f]	0b-y
4A	.	.	.
1G	.	1B-y	.
.	2e	.	.
=9	=9	=9	=9
2.F	1f	1c	2.a
4G	.	.	4b-y
2A	2e	2r	2cc
2B-y	2d	2g	[2dd
=10	=10	=10	=10
1A	1e	1a	2dd]
.	.	.	2cc#i
2D	1d	2A	[1dd
2G	.	[2B-y	.
=11	=11	=11	=11
2G	2r	4B-]	1dd]
.	.	4c	.
2G	2d	4d	.
.	.	4e	.
1F	2d	1f	1r
.	2d	.	.
=12	=12	=12	=12
1E	1c	0r	1r
[1D	1B-y	.	2r
.	.	.	2dd
=13	=13	=13	=13
1D]	1A	1d	2dd
.	.	.	2dd
1A	2r	2.e	1cc
.	2c	.	.
.	.	4f	.
=14	=14	=14	=14
1G	2d	1g	1b-y
.	2e	.	.
2F	2f	[1c	2a
[2C	[2e	.	[2cc
=15	=15	=15	=15
1C]	4e]	2c]	4cc]
.	4d	.	4b-y
.	4c	2e	4a
.	4B-y	.	4g
2D	2A	2d	2f
2E	2G	2c	[2g
=16	=16	=16	=16
1D	1A	1d	2g]
.	.	.	2f#i
1GG	1G	2r	1g
.	.	2d	.
=17	=17	=17	=17
0r	0r	2d	2r
.	.	2d	2a
.	.	1c	2a
.	.	.	2a
=18	=18	=18	=18
1r	1r	1B-y	1g
2r	2r	2.A	[1f
2D	2A	.	.
.	.	4G	.
=19	=19	=19	=19
2D	2A	4F	1f]
.	.	4E	.
2D	2.B-y	2.F	.
1C	.	.	1r
.	4A	4E	.
.	[2A	[2E	.
=20	=20	=20	=20
1BB-y	2A]	2E]	1r
.	2G	2D	.
1AA	[1A	2E	1cc
.	.	2e	.
=21	=21	=21	=21
1.D	2A]	2.d	0a
.	2d	.	.
.	.	4e	.
.	2d	1f	.
2E	2d	.	.
=22	=22	=22	=22
1F	1c	1f	2a
.	.	.	2a
1G	1B-y	1d	1g
=23	=23	=23	=23
2D	2.A	2.d	2.f
2G	.	.	.
.	4B-y	4e	4g
2F	2c	1f	1a
2D	2d	.	.
=24	=24	=24	=24
2G	2B-y	2d	2b-y
2C	2c	2e	1g
1D	2A	1d	.
.	[2d	.	2f#i
=25	=25	=25	=25
1E	2d]	2r	1g
.	2c#i	2G	.
2.D	[1d	[1A	2.f
4E	.	.	4g
=26	=26	=26	=26
2F	0d_	2A]	2a
2G	.	2G	2b-y
2F	.	2A	2a
2G	.	2B-y	2g
=27	=27	=27	=27
2.D	1d]	2A	2f
.	.	2.d	1a
4E	.	.	.
2F	[1d	.	.
.	.	4c	.
2G	.	2B-y	[2g
=28	=28	=28	=28
1D	1d]	1A	2g]
.	.	.	2f#i
1G	2.d	1G	2g
.	.	.	2b-y
.	4e	.	.
=29	=29	=29	=29
2F	2f	1r	2a
2G	2d	.	2b-y
4C	1e	[1g	1cc
4D	.	.	.
4E	.	.	.
4F	.	.	.
=30	=30	=30	=30
2G	2d	2g]	2b-y
2A	2.c	2e	1a
2F	.	4f	.
.	4B-y	4e	.
2G	4A	4d	[2g
.	4G	4c	.
=31	=31	=31	=31
1D	1A	1d	2g]
.	.	.	2f#i
[1GGl	[1Gl	[1dl	[1gl
=32	=32	=32	=32
00GG]	00G]	00d]	00g]
==	==	==	==
*-	*-	*-	*-
!!!system-decoration: [*]
!!!RDF**kern: i = editorial accidental
!!!RDF**kern: l = terminal long
!!!ENC: Benjamin Ory
!!!END: 2025/1/2
!!!EED: Benjamin Ory
!!!EEV: 2025/02/23
!!!YEC: Copyright 2025 Benjamin Ory, All Rights Reserved
!!!ONB: Translated from MusicXML on 2025/02/23